!!!COM: Civita, Davit
!!!CDT:
!!!PTL: Premitie armoniche a tre voci
!!!PPP: Venice
!!!PPR: Giacomo Vincenzi
!!!PDT: 1616
!!!PUB-format:
!!!RISM: Unknown
!!!rime: 284
!!!OTL: Questa vostra pietate
!!!AGN: Madrigal
!!!SCT: Trm0284k
!!!SCA: Trm0284k
!!!original-voices: 3+Bc
!!!extant-voices: 2+Bc
!!!complete: N
!!!final: F
**kern	**kern	**text	**kern	**text
*part3	*part2	*part2	*part1	*part1
*staff3	*staff2	*staff2	*staff1	*staff1
*I"B.C.	*I"Basso	*	*I"Alto	*
*I'B.C.	*I'B	*	*I'A	*
*oclefF4	*oclefF4	*	*oclefC1	*
*clefF4	*clefF4	*	*clefG2	*
*k[b-]	*k[b-]	*	*k[b-]	*
*F:	*F:	*	*F:	*
*omet(C)	*omet(C)	*	*omet(C)	*
*M2/2	*M2/2	*	*M2/2	*
=1	=1	=1	=1	=1
2.F	2.F	Que-	2.a	Que-
4E	4E	-sta	4g	-sta
=2	=2	=2	=2	=2
2.F	2.F	vo-	4a	vo-
.	.	.	8a	-stra
.	.	.	8b-y	pie-
.	.	.	[2cc	-ta-
8CL	8C	-stra	.	.
8DJ	8D	pie-	.	.
=3	=3	=3	=3	=3
2E-X	2E-X	-ta-	2cc]	.
2D	2D	-te	2dd	-te
=4	=4	=4	=4	=4
2D	4r	.	4r	.
.	4D	Non	4dd	Non
4GG	4GG	re-	4b-y	re-
4AA	4AA	-fri-	4cc	-fri-
=5	=5	=5	=5	=5
4BB-y	4BB-y	-ge-	4dd	-ge-
4GG	4GG	-rio_al	4b-y	-rio_al
2D	2D	co-	4a	co-
.	.	.	4a	-re
=6	=6	=6	=6	=6
1AA	1AA	-re	4r	.
.	.	.	4cc	Ma
.	.	.	4a	dà
.	.	.	[4cc	for-
=7	=7	=7	=7	=7
4F	4F	Ma	4cc]	.
4D	4D	dà	8f	-z'al-
.	.	.	8g	-l'ar-
4F	4F	for-	4a	-do-
8CL	8C	-z'al-	4g	-re,
8DJ	8D	-l'ar-	.	.
=8	=8	=8	=8	=8
2E-X	2E-X	-do-	4r	.
.	.	.	4g	<Ma
2BB-y	2BB-y	-re;	4d	dà
.	.	.	[4f	for-
=9	=9	=9	=9	=9
2.F	2.F	Dun-	4f]	.
.	.	.	8a	-z'al-
.	.	.	8b-y	-l'ar-
.	.	.	4cc	-do-
4F	4F	-que	4f	-re;>
=10	=10	=10	=10	=10
2F	2F	d'es-	4.cc	Dun-
.	.	.	8cc	-que
4F	4F	-ser	4cc	d'es-
4D	4D	pie-	8f	-ser
.	.	.	8f	pie-
=11	=11	=11	=11	=11
4C	4C	-to-	4g	-to-
4F	4F	-s'ho-	4a	-s'ho-
[2BB-y	[2BB-y	-mai	2b-y	-mai
=12	=12	=12	=12	=12
4BB-]	4BB-]	.	4g	ces-
4C	4C	ces-	2g	-sa-
2D	2D	-sa-	.	.
.	.	.	4f#X	.
=13	=13	=13	=13	=13
1GG	1GG	-te	1g	-te
=14	=14	=14	=14	=14
4G	4G	In	4b-y	In
4D	4D	co-	4a	co-
[2F	[2F	-sì	[2a	-sì
=15	=15	=15	=15	=15
4F]	4F]	.	4a]	.
8CL	8C	stra-	8g	stra-
8CJ	8C	-na	8g	-na
2F	2F	gui-	2a	gui-
=16	=16	=16	=16	=16
4BB-y	4BB-y	-sa	4b-y	-sa
2B-y	4r	.	4r	.
.	4B-y	Che	4b-y	Che
4G	4G	ne	4b-y	ne
=17	=17	=17	=17	=17
4A	4A	sia	4a	sia
8FL	8F	l'al-	8a	l'al-
8FJ	8F	-m'uc-	8a	-m'uc-
4G	4G	-ci-	4g	-ci-
4E	4E	-sa,	4g	-sa,
=18	=18	=18	=18	=18
4F	4F	<Che	4cc	<Che
4BB-y	4BB-y	ne	4dd	ne
4D	4D	sia	4dd	sia
8GGL	8GG	l'al-	8bni	l'al-
8GGJ	8GG	-m'uc-	8bni	-m'uc-
=19	=19	=19	=19	=19
1AA	1AA	-ci-	4cc#X	-ci-
.	.	.	2dd	.
.	.	.	4cc#X	.
=20	=20	=20	=20	=20
1D	1D	-sa;>	1dd	-sa;>
=21	=21	=21	=21	=21
2BB-y	4r	.	4r	.
.	4BB-y	Per-	4b-y	Per-
4.FF	4.FF	-ch'el-	4.a	-ch'el-
8FF	8FF	-la	8a	-la
=22	=22	=22	=22	=22
4GG	4GG	vi	4g	vi
4AA	4AA	de-	4f	de-
2C	2C	-si-	2e	-si-
=23	=23	=23	=23	=23
2C	2C	-a	4e	-a
.	.	.	2cc	O_in
4F	4F	O_in	.	.
4G	4G	e-	4b-y	e-
=24	=24	=24	=24	=24
4A	4A	-stre-	4a	-stre-
8B-yL	8B-y	-mo	8g	-mo
8B-yJ	8B-y	cru-	8f	cru-
4c	4c	-de-	2e	-de-
4C	4C	-l'ò_in	.	.
=25	=25	=25	=25	=25
2D	2D	tut-	2.a	-l'o_in
2AA	2AA	-to	.	.
.	.	.	[4e	tut-
=26	=26	=26	=26	=26
1C	1C	pi-	8e]	.
.	.	.	8c	-to
.	.	.	2f	pi-
.	.	.	4e	.
=27	=27	=27	=27	=27
1FFl	1FFl	-a.	1fl	-a.
==	==	==	==	==
*-	*-	*-	*-	*-
!!!system-decoration: [*]
!!!RDF**kern: i = editorial accidental
!!!RDF**kern: l = terminal long
!!!ENC: Emiliano Ricciardi
!!!END: 2019/01/30
!!!EED: Schleuse, Paul
!!!EEV: 2019/01/30
!!!YEC: Copyright 2018 Emiliano Ricciardi, All Rights Reserved
!!!ONB: Translated from MusicXML on 2019/01/30 and edited by Craig Stuart Sapp
!!@@BEGIN:	VERSEDATA
!!@SOLERTI:	284
!!@CATALOGNUM:	Trm0284
!!@LAST_MODIFIED: 2020/07/12
!!@TITLE:		Questa vostra pietate
!!@GENRE:		madrigale
!!@MANUSRC:	Amz, E<sub>1</sub>, I<sub>4</sub>, P<sub>4</sub>, V<sub>13/E1</sub>
!!@PRINTSRC:	8, 9, 11, 12, 13, 15, 20, 24, 29, 33, 67, 169
!!@@BEGIN:	VERSES
!!@ABOUTIT:	Persuade la sua donna ad essere o in tutto crudele o in tutto pia.
!!@ABOUTEN:	He persuades his lady to be either fully cruel, or fully pitiful.
!!@EDITOR:	Solerti, Angelo
!!@EDITION_TITLE: Le Rime di Torquato Tasso
!!@EDITION_LOC:	Bologna
!!@EDITION_PUB:	Romagnoli-Dall’Acqua
!!@EDITION_DATE:  1898-1902
!!@EDITION_VOL:	2
!!@EDITION_PAGE:  355
!!@TRANSLATOR:	Emiliano Ricciardi and Amyrose McCue Gill
!!@VERSE:
!!	Questa vostra pietate
!!	Non refrigerio al core
!!	Ma dà forza a l'ardore;
!!	Dunque d'esser pietosa omai cessate
!!	In così strana guisa
!!	Che ne sia l'alma uccisa;
!!	Perch'ella vi desia
!!	O in estremo crudele o in tutto pia.
!!@TVERSE:
!!	This compassion of yours
!!	Brings not respite to my heart
!!	But strength to my ardor;
!!	Therefore, cease now to be compassionate
!!	In such a strange manner
!!	That my soul is slain by it;
!!	Because she desires you
!!	Whether extremely cruel or entirely compassionate.
!!@@END:		VERSES
!!@OTHER_CRIT_ED:   None
!!@ATTRIBUTION_ABOUT:	Secure
!!		<br>
!!		Among other sources (see Literary Sources), this poem appears in the authoritative manuscript It. 385, Biblioteca Estense Universitaria, Modena.
!!@DATING:	In or before 1581
!!		<Br>
!!		The earliest datable appearance of this poem is Manuzio's 1581 print of the <i>Rime</> (see Literary Sources).
!!@DEDICATEE:
!!@COMMENTARY:
!!@@END:		VERSEDATA
!!@@BEGIN:	SETTING
!!@CATALOGNUM:	Trm0284k
!!@RIMETITLE:	Questa vostra pietate
!!@SOLERTI:	284
!!@COMPOSER:	Civita, Davit
!!@PRINCEPSTITLE:	Premitie armoniche a tre voci
!!@PRINCEPSLOC:	Venetia
!!@NORMLOC:	Venice
!!@NORMPUB:	Giacomo Vincenzi
!!@NORMPUBSHORT:	G. Vincenzi
!!@PRINCEPSPUB:	Vincenti
!!@PRINCEPSYEAR:	1616
!!@PRINCEPSRISM:	Unknown
!!@REPRINTS:	
!!@OVOICES:	3+Bc
!!@EXTANTVOICES:	2+Bc
!!@PARTBOOKS:	
!!@EXTPARTBOOKS:	
!!@OCLEFS:	C1,F4,F4
!!@OMENSURATION:	C
!!@OKEYSIG:	b-
!!@FINAL:	F
!!@TIMPEDITOR:	Schleuse, Paul
!!@NOTE:		
!!@@END:		SETTING
